X: 3
T: The Castlebar Races
R: jig
M: 6/8
L: 1/8
K: Gmaj
gdB BAB|GBA GBd|gdB BAB|GBd e2d|!
gdB BAB|GBA GBd|gfe fdB|GBd e2:|!
f|~g3 bag|~f3 afd|~g3 bag|afd e2f|!
~g3 bag|~f3 afd|gfe fdB|GBd e2:|!


Tune 1205	Setting 14496

